!!!COM: Palestrina, Giovanni Perluigi da
!!!OPR: Missa O Regem coeli
!!!OMD: Credo
!!!OTL: First Section
**kern	**kern	**kern	**kern
*Ibass	*Itenor	*Icalto	*Icant
!Bassus	!Tenor	!Altus	!Cantus
*clefF4	*clefGv2	*clefG2	*clefG2
*k[b-]	*k[b-]	*k[b-]	*k[b-]
*G:dor	*G:dor	*G:dor	*G:dor
*M4/2	*M4/2	*M4/2	*M4/2
=1	=1	=1	=1
1A	0r	0r	0r
[1G	.	.	.
=2	=2	=2	=2
2G]	1r	0r	0r
2F	.	.	.
2B-	1d	.	.
2B-	.	.	.
=3	=3	=3	=3
1A	1.c	0r	0r
1G	.	.	.
.	2B-	.	.
=4	=4	=4	=4
2r	2e-	0r	0r
2c	2e-	.	.
2B-	1d	.	.
2G	.	.	.
=5	=5	=5	=5
0B-	2G	0r	0r
.	2g	.	.
.	2f	.	.
.	2d	.	.
=6	=6	=6	=6
2.A	2f	1r	0r
.	2.e	.	.
4G	.	.	.
2F	.	1a	.
.	4d	.	.
2D	[2d	.	.
=7	=7	=7	=7
1E	2d]	1.g	0r
.	2c#	.	.
1D	1d	.	.
.	.	2f	.
=8	=8	=8	=8
2r	2G	2b-	1dd
2G	2g	2b-	.
2A	2e	1a	[1cc
2F	2f	.	.
=9	=9	=9	=9
1G	1d	1g	2cc]
.	.	.	2b-
2C	1c	2r	2ee-
2C	.	2g	2ee-
=10	=10	=10	=10
1G	1.B-	2g	1dd
.	.	2g	.
1G	.	[1b-	2g
.	4A	.	2dd
.	4G	.	.
=11	=11	=11	=11
0r	2B-	2b-]	2dd
.	2c	4a	2ee
.	.	4g	.
.	[1d	2f	1ff
.	.	2d	.
=12	=12	=12	=12
0r	2d]	2f	2dd
.	2c	2.g	2.ee
.	1B-	.	.
.	.	4f	4dd
.	.	2d	[2dd
=13	=13	=13	=13
1r	1A	1e	2dd]
.	.	.	2cc#
2r	1r	[1d	[1dd
[2G	.	.	.
=14	=14	=14	=14
2G]	2r	1d]	1dd]
2F	1d	.	.
2G	.	1r	1r
2A	2c	.	.
=15	=15	=15	=15
2B-	2d	0r	0r
4A	2e	.	.
4G	.	.	.
2F	4f	.	.
.	4e	.	.
2G	4d	.	.
.	4c	.	.
=16	=16	=16	=16
2D	4B-	1r	0r
.	4A	.	.
2F	1d	.	.
1E	.	2r	.
.	2c#	[2g	.
=17	=17	=17	=17
1D	2.d	2g]	2r
.	.	2f#	1dd
.	4c	.	.
1r	2B-	2g	.
.	2A	2a	2cc#
=18	=18	=18	=18
1r	1G	2b-	2dd
.	.	4a	2ee
.	.	4g	.
2r	1r	2f	4ff
.	.	.	4ee
[2G	.	2g	4dd
.	.	.	4cc
=19	=19	=19	=19
2G]	0r	2d	4b-
.	.	.	4cc
2F	.	2f	1dd
2G	.	1e	.
2A	.	.	2cc#
=20	=20	=20	=20
2.B-	2r	1d	1dd
.	1d	.	.
4B-	.	.	.
1A	.	2r	1r
.	2c#	[2a	.
=21	=21	=21	=21
2B-	2d	2a]	1r
2c	2e	2g	.
2F	2.f	2a	2r
2D	.	2a	[2dd
.	4f	.	.
=22	=22	=22	=22
1A	1e	2.a	2dd]
.	.	.	2cc#
.	.	4g	.
1r	2d	2f	2dd
.	2c#	[2e	2ee
=23	=23	=23	=23
0r	1d	4e]	2.ff
.	.	4d	.
.	.	1d	.
.	.	.	4ff
.	1A	.	1ee
.	.	2c#	.
=24	=24	=24	=24
2r	2r	1d	2.dd
2G	2B-	.	.
.	.	.	4cc
2G	2B-	1r	2b-
2A	2c	.	2a
=25	=25	=25	=25
1B-	1d	2r	2f
.	.	2d	2g
1A	1c	2e	1a
.	.	2f	.
=26	=26	=26	=26
1.G	1d	1.g	2r
.	.	.	2.b-
.	1r	.	.
.	.	.	4b-
2A	.	4f	2cc
.	.	4e	.
=27	=27	=27	=27
2.B-	2r	1d	2.dd
.	2B-	.	.
4A	.	.	4cc
2G	2B-	2d	2b-
4F	2c	[2f	2a
4E	.	.	.
=28	=28	=28	=28
2D	2d	2f]	2b-
2F	2A	2c	2.a
2E-	2B-	2e-	.
.	.	.	4g
2C	2c	2e-	[2g
=29	=29	=29	=29
2.D	2A	1d	2g]
.	2A	.	2f#
4D	.	.	.
1G	[1G	2r	1g
.	.	[2d	.
=30	=30	=30	=30
0r	1G]	2d]	2r
.	.	2G	1dd
.	1r	2.g	.
.	.	.	2g
.	.	4a	.
=31	=31	=31	=31
0r	0r	2b-	2dd
.	.	4a	2ee
.	.	4g	.
.	.	2f	2ff
.	.	2a	[2ee
=32	=32	=32	=32
2r	0r	2.g	4ee]
.	.	.	4dd
1G	.	.	1dd
.	.	4f	.
.	.	1e	.
2C	.	.	[2cc
=33	=33	=33	=33
1G	2r	1d	2cc]
.	1d	.	4b-
.	.	.	4a
2G	.	1r	2.b-
[2B-	2G	.	.
.	.	.	8a
.	.	.	8g
=34	=34	=34	=34
2B-]	2d	0r	2f
4A	2e	.	2g
4G	.	.	.
4F	2f	.	1a
4G	.	.	.
2A	[2e	.	.
=35	=35	=35	=35
2.G	4e]	1r	1r
.	4d	.	.
.	1d	.	.
4F	.	.	.
2E	.	1g	2r
2E	2c#	.	2g
=36	=36	=36	=36
1D	1d	2g	2b-
.	.	2f#	2a
1r	2r	1g	2.b-
.	[2G	.	.
.	.	.	4cc
=37	=37	=37	=37
1G	2G]	0d	1dd
.	1B-	.	.
2G	.	.	1dd
2F#	2A	.	.
=38	=38	=38	=38
2G	2.B-	2r	2r
2G	.	1g	1b-
.	4c	.	.
1D	1d	.	.
.	.	2f#	2a
=39	=39	=39	=39
1r	2r	1g	1b-
.	1g	.	.
2r	.	1d	2a
[2d	2f	.	2dd
=40	=40	=40	=40
2d]	2d	1a	2ff
2c#	2e	.	1ee
1d	1f	2a	.
.	.	2a	[2dd
=41	=41	=41	=41
2A	1e	1a	2dd]
2A	.	.	2cc#
2.B-	2.d	1f	[1dd
4A	4c	.	.
=42	=42	=42	=42
2G	2B-	1r	1dd]
2F	2A	.	.
1G	1B-	2r	1r
.	.	[2g	.
=43	=43	=43	=43
1D	1A	2g]	2r
.	.	2f	1dd
1r	2B-	2d	.
.	2c	2e	2cc
=44	=44	=44	=44
2r	1d	2.f	1a
1d	.	.	.
.	.	4e	.
.	1r	4f	2b-
.	.	4g	.
2c	.	[2a	[2cc
=45	=45	=45	=45
2A	1r	2a]	4cc]
.	.	.	4b-
2B-	.	1g	2g
2c	2r	.	1a
2d	[2d	2f	.
=46	=46	=46	=46
1A	2d]	2e	1a
.	2c	1a	.
1r	2A	.	1r
.	2B-	2g	.
=47	=47	=47	=47
0r	2c	2e	1r
.	2d	2f	.
.	2e	2g	1cc
.	2f	2a	.
=48	=48	=48	=48
1r	1d	1f	2ff
.	.	.	1ff
1C	1c	2g	.
.	.	[2g	2ee-
=49	=49	=49	=49
2G	2r	2g]	2.dd
1G	2G	1d	.
.	.	.	4cc
.	2d	.	2b-
2F	[2d	[2f	2a
=50	=50	=50	=50
2D	4d]	4f]	2b-
.	4d	4f	.
2F	2A	2c	2.a
2E-	2B-	2e-	.
.	.	.	4g
2C	2c	2e-	[2g
=51	=51	=51	=51
1D	1A	0d	2g]
.	.	.	2f#
1G	[1G	.	1g
=52	=52	=52	=52
0r	1G]	2r	2r
.	.	2d	2g
.	1r	1g	1b-
=53	=53	=53	=53
1r	0r	2f	2a
.	.	2g	2b-
1A	.	2e	2cc
.	.	2e	2cc
=54	=54	=54	=54
1B-	2r	1d	1dd
.	2d	.	.
2A	1f	1r	1r
2B-	.	.	.
=55	=55	=55	=55
2G	2e	0r	1r
2A	2f	.	.
1B-	2.d	.	2r
.	.	.	[2dd
.	4e	.	.
=56	=56	=56	=56
2.A	2f	2r	2dd]
.	2e	1a	1cc
4G	.	.	.
2F	1d	.	.
2G	.	[2g	2b-
=57	=57	=57	=57
2D	1d	2g]	2.a
1d	.	2f	.
.	.	.	4g
.	1r	2d	2f
[2c	.	[2e	[2g
=58	=58	=58	=58
2c]	0r	4e]	4g]
.	.	4d	4f
2B-	.	1d	2d
2.A	.	.	1e
.	.	2c	.
4G	.	.	.
=59	=59	=59	=59
2F	0r	2A	1d
2.G	.	2.B-	.
.	.	.	1dd
4F	.	4c	.
2D	.	[2d	.
=60	=60	=60	=60
1E	2r	2d]	2.g
.	1g	2c#	.
.	.	.	4a
1D	.	1d	2b-
.	[2f	.	2a
=61	=61	=61	=61
1C	2f]	2r	1cc
.	2e	2g	.
1G	2.d	1g	2.b-
.	4c	.	4a
=62	=62	=62	=62
2G	2B-	2d	4b-
.	.	.	4g
2F	2.c	2f	2.a
2C	.	2e-	.
.	4B-	.	4g
2E-	2G	2c	[2g
=63	=63	=63	=63
1D	1A	0d	2g]
.	.	.	2f#
1r	1G	.	1g
=64	=64	=64	=64
0G	1r	1r	1r
.	1g	[1d	1b-
=65	=65	=65	=65
1G	1g	1d]	1b-
1G	1g	1d	1b-
=66	=66	=66	=66
1B-	1f	1d	1dd
1c	1e-	1g	1cc
=67	=67	=67	=67
0G	1d	2g	1.b-
.	.	1g	.
.	2r	.	.
.	2d	4f	4a
.	.	4e	4g
=68	=68	=68	=68
2r	2d	1f	0a
2D	2d	.	.
1D	2.f	1d	.
.	8e	.	.
.	8d	.	.
=69	=69	=69	=69
2C	2e-	1r	0r
2BB-	1d	.	.
1E-	.	[1g	.
.	2c	.	.
=70	=70	=70	=70
1D	1d	2g]	1.a
.	.	2f	.
2r	1r	2f	.
[2A	.	4e	2a
.	.	4d	.
=71	=71	=71	=71
2A]	0r	2e	1cc
2A	.	2c	.
2G	.	[1d	2b-
2F	.	.	[2a
=72	=72	=72	=72
2B-	1.d	2d]	2a]
2B-	.	2d	2g
[1A	.	[1e	[1a
.	4c	.	.
.	4B	.	.
=73	=73	=73	=73
1A]	1c#	1e]	1a]
[1D	2.d	[1a	1r
.	4e	.	.
=74	=74	=74	=74
1D]	1f	1a]	1.dd
[1A	[1e	[1a	.
.	.	.	4cc
.	.	.	4b
=75	=75	=75	=75
1A]	1e]	1a]	1cc#
1D	1f	1a	1dd
=76	=76	=76	=76
1G	1d	1g	1b
[1C	[1e-	[1g	1cc
=77	=77	=77	=77
1C]	1e-]	1g]	1cc
[1G	[1d	[1g	[1b
=78	=78	=78	=78
1G_	1d_	1g_	1b_
1G_	1d_	1g_	1b_
=79	=79	=79	=79
1G]	1d]	1g]	1b]
*-	*-	*-	*-
!!!CDT: 1525/^1526/-1594/2/2
!!!OCY: Italia
!!!AGN: Mass (Parody)
!!!AST: renaissance, vocal
!!!ASW: Motet 1532 (Silva)
!!!PWK: Masses, Book I
!!!RNB: Cadence finals: D
!!!YOR: Le Opere Complete, v. 1, p. 35
!!!YOO: Rome, Italy: Fratelli Scalera
!!!END: 1992//
!!!EED: John Miller
!!!YEC: Copyright 2000, John Miller
!!!YEN: United States of America
!!!YEM: Rights to all derivative electronic formats reserved.
!!!YEM: Refer to licensing agreement for further details.
!!!YEM: This file must be accompanied by the licensing agreement.
!!!YEM: A copy of the licensing agreement may be found at http://www.music-cog.ohio-state.edu/HumdrumDatabases/Palestrina/license.txt
!!!EMD: converted to Humdrum by Bret Aarden
